actions/22/node-symmetric.svg

<?xml version="1.0" encoding="UTF-8" standalone="no"?>
<!-- Created with Inkscape (http://www.inkscape.org/) -->

<svg
   xmlns:dc="http://purl.org/dc/elements/1.1/"
   xmlns:cc="http://creativecommons.org/ns#"
   xmlns:rdf="http://www.w3.org/1999/02/22-rdf-syntax-ns#"
   xmlns:svg="http://www.w3.org/2000/svg"
   xmlns="http://www.w3.org/2000/svg"
   xmlns:xlink="http://www.w3.org/1999/xlink"
   xmlns:inkscape="http://www.inkscape.org/namespaces/inkscape"
   version="1.0"
   width="22"
   height="22"
   id="svg8472">
  <defs
     id="defs8474">
    <linearGradient
       id="linearGradient9682">
      <stop
         id="stop9684"
         style="stop-color:#ffffff;stop-opacity:1"
         offset="0" />
      <stop
         id="stop9686"
         style="stop-color:#ffffff;stop-opacity:0"
         offset="1" />
    </linearGradient>
    <linearGradient
       x1="22.910416"
       y1="431.60751"
       x2="27.329832"
       y2="440.2254"
       id="linearGradient10410"
       xlink:href="#linearGradient9682"
       gradientUnits="userSpaceOnUse" />
    <linearGradient
       id="linearGradient8633">
      <stop
         id="stop8635"
         style="stop-color:#d3d7cf;stop-opacity:1"
         offset="0" />
      <stop
         id="stop8637"
         style="stop-color:#eeeeec;stop-opacity:1"
         offset="1" />
    </linearGradient>
    <linearGradient
       x1="23.4375"
       y1="423.9375"
       x2="26.251186"
       y2="434.43832"
       id="linearGradient10408"
       xlink:href="#linearGradient8633"
       gradientUnits="userSpaceOnUse"
       gradientTransform="translate(0,7)" />
    <linearGradient
       id="linearGradient7653">
      <stop
         id="stop7655"
         style="stop-color:#babdb6;stop-opacity:1"
         offset="0" />
      <stop
         id="stop7657"
         style="stop-color:#eeeeec;stop-opacity:0"
         offset="1" />
    </linearGradient>
    <linearGradient
       id="linearGradient7669">
      <stop
         id="stop7671"
         style="stop-color:#555753;stop-opacity:1"
         offset="0" />
      <stop
         id="stop7673"
         style="stop-color:#555753;stop-opacity:0"
         offset="1" />
    </linearGradient>
    <linearGradient
       id="linearGradient8039">
      <stop
         id="stop8041"
         style="stop-color:#000000;stop-opacity:1"
         offset="0" />
      <stop
         id="stop8043"
         style="stop-color:#000000;stop-opacity:0"
         offset="1" />
    </linearGradient>
    <linearGradient
       x1="336.38605"
       y1="426.56412"
       x2="336.38605"
       y2="424.16095"
       id="linearGradient9812"
       xlink:href="#linearGradient7653"
       gradientUnits="userSpaceOnUse"
       gradientTransform="matrix(0.9928974,0,0,0.8450708,-331.91497,-354.74311)" />
    <linearGradient
       x1="336.38605"
       y1="427.76694"
       x2="336.38605"
       y2="424.16095"
       id="linearGradient9815"
       xlink:href="#linearGradient7669"
       gradientUnits="userSpaceOnUse"
       gradientTransform="matrix(0.9939265,0,0,0.8450708,-332.2884,-354.74311)" />
    <radialGradient
       cx="10.120466"
       cy="439.65573"
       r="3.0052037"
       fx="10.120466"
       fy="439.65573"
       id="radialGradient9819"
       xlink:href="#linearGradient8039"
       gradientUnits="userSpaceOnUse"
       gradientTransform="matrix(1,0,0,0.4779412,0,229.52615)" />
  </defs>
  <metadata
     id="metadata8477">
    <rdf:RDF>
      <cc:Work
         rdf:about="">
        <dc:format>image/svg+xml</dc:format>
        <dc:type
           rdf:resource="http://purl.org/dc/dcmitype/StillImage" />
        <dc:title>Node Symmetric</dc:title>
        <dc:date>2006-05-01</dc:date>
        <dc:creator>
          <cc:Agent>
            <dc:title>Lapo Calamandrei</dc:title>
          </cc:Agent>
        </dc:creator>
        <cc:license
           rdf:resource="http://creativecommons.org/licenses/GPL/2.0/" />
        <dc:subject>
          <rdf:Bag>
            <rdf:li>node</rdf:li>
            <rdf:li>vertex</rdf:li>
            <rdf:li>smooth</rdf:li>
            <rdf:li>curve</rdf:li>
            <rdf:li>symmetric</rdf:li>
          </rdf:Bag>
        </dc:subject>
      </cc:Work>
      <cc:License
         rdf:about="http://creativecommons.org/licenses/GPL/2.0/">
        <cc:permits
           rdf:resource="http://web.resource.org/cc/Reproduction" />
        <cc:permits
           rdf:resource="http://web.resource.org/cc/Distribution" />
        <cc:requires
           rdf:resource="http://web.resource.org/cc/Notice" />
        <cc:permits
           rdf:resource="http://web.resource.org/cc/DerivativeWorks" />
        <cc:requires
           rdf:resource="http://web.resource.org/cc/ShareAlike" />
        <cc:requires
           rdf:resource="http://web.resource.org/cc/SourceCode" />
      </cc:License>
    </rdf:RDF>
  </metadata>
  <g
     id="layer1">
    <path
       d="m 13.12567,439.65573 a 3.0052037,1.4363106 0 1 1 -6.0104075,0 3.0052037,1.4363106 0 1 1 6.0104075,0 z"
       transform="matrix(3.1374125,0,0,2.4368044,-21.252069,-1054.855)"
       id="path7675"
       style="opacity:0.3;fill:url(#radialGradient9819);fill-opacity:1;stroke:none" />
    <path
       d="m 19.31308,3.40901 c 1.10263,6.01509 -2.7799,11.091 -8.8211,11.091 -6.10971,0 -9.85482,-5.00318 -8.8211,-11.091"
       inkscape:connector-curvature="0"
       id="path7664"
       style="fill:none;stroke:url(#linearGradient9815);stroke-width:2.99999976;stroke-linecap:square;stroke-linejoin:miter;stroke-miterlimit:4;stroke-opacity:1;stroke-dasharray:none;stroke-dashoffset:0" />
    <path
       d="m 19.32248,3.40901 c 1.06707,6.07759 -2.77702,11.091 -8.81197,11.091 -6.10339,0 -9.94788,-4.94068 -8.81196,-11.091"
       inkscape:connector-curvature="0"
       id="path5657"
       style="fill:none;stroke:url(#linearGradient9812);stroke-width:0.99999994;stroke-linecap:square;stroke-linejoin:miter;stroke-miterlimit:4;stroke-opacity:1;stroke-dashoffset:0" />
    <g
       transform="translate(-333.99999,-419)"
       id="g7630"
       style="stroke:#204a87">
      <path
         d="m 338.5,433.5 12,0"
         inkscape:connector-curvature="0"
         id="path7621"
         style="fill:#729fcf;fill-rule:evenodd;stroke:#3465a4;stroke-width:3;stroke-linecap:butt;stroke-linejoin:miter;stroke-miterlimit:4;stroke-opacity:1;stroke-dasharray:none" />
      <path
         d="m 352.53691,433.53482 a 1.016466,1.0606601 0 1 1 -2.03293,0 1.016466,1.0606601 0 1 1 2.03293,0 z"
         transform="matrix(0.9838007,0,0,0.9428091,6.673922,24.759433)"
         id="path7623"
         style="fill:none;stroke:#3465a4;stroke-width:3.1149838;stroke-linecap:square;stroke-linejoin:round;stroke-miterlimit:4;stroke-opacity:1;stroke-dasharray:none;stroke-dashoffset:0" />
      <path
         d="m 352.53691,433.53482 a 1.016466,1.0606601 0 1 1 -2.03293,0 1.016466,1.0606601 0 1 1 2.03293,0 z"
         transform="matrix(0.9838007,0,0,0.9428091,-9.326078,24.759433)"
         id="path7625"
         style="fill:none;stroke:#3465a4;stroke-width:3.1149838;stroke-linecap:square;stroke-linejoin:round;stroke-miterlimit:4;stroke-opacity:1;stroke-dasharray:none;stroke-dashoffset:0" />
    </g>
    <g
       transform="translate(-333.99999,-419)"
       id="g7611"
       style="stroke:#b6cee7;stroke-opacity:1">
      <path
         d="m 337.5,433.5 14,0"
         inkscape:connector-curvature="0"
         id="path6634"
         style="fill:#729fcf;fill-rule:evenodd;stroke:#c2d6eb;stroke-width:1px;stroke-linecap:butt;stroke-linejoin:miter;stroke-opacity:1" />
      <path
         d="m 352.53691,433.53482 a 1.016466,1.0606601 0 1 1 -2.03293,0 1.016466,1.0606601 0 1 1 2.03293,0 z"
         transform="matrix(0.9838007,0,0,0.9428091,6.673922,24.759433)"
         id="path6636"
         style="fill:none;stroke:#c2d6eb;stroke-width:1.03832793;stroke-linecap:square;stroke-linejoin:round;stroke-miterlimit:4;stroke-opacity:1;stroke-dasharray:none;stroke-dashoffset:0" />
      <path
         d="m 352.53691,433.53482 a 1.016466,1.0606601 0 1 1 -2.03293,0 1.016466,1.0606601 0 1 1 2.03293,0 z"
         transform="matrix(0.9838007,0,0,0.9428091,-9.326078,24.759433)"
         id="path6640"
         style="fill:none;stroke:#c2d6eb;stroke-width:1.03832793;stroke-linecap:square;stroke-linejoin:round;stroke-miterlimit:4;stroke-opacity:1;stroke-dasharray:none;stroke-dashoffset:0" />
    </g>
    <g
       transform="translate(-14,-419)"
       id="g9838">
      <rect
         width="6"
         height="6"
         rx="0.64931798"
         ry="0.64931798"
         x="21.5"
         y="430.5"
         id="rect9840"
         style="fill:url(#linearGradient10408);fill-opacity:1;stroke:#888a85;stroke-width:1;stroke-linecap:round;stroke-linejoin:round;stroke-miterlimit:4;stroke-opacity:1;stroke-dasharray:none;stroke-dashoffset:0" />
      <path
         d="m 22.500007,431.50001 3.999986,0 0,4.00012 -3.999986,0 0,-4.00012 z"
         inkscape:connector-curvature="0"
         id="path9842"
         style="fill:none;stroke:url(#linearGradient10410);stroke-width:1.00000048;stroke-linecap:round;stroke-linejoin:miter;stroke-miterlimit:4;stroke-opacity:1" />
    </g>
  </g>
</svg>

<?xml version="1.0" encoding="UTF-8" standalone="no"?>
<!-- Created with Inkscape (http://www.inkscape.org/) -->
<svg
   xmlns:dc="http://purl.org/dc/elements/1.1/"
   xmlns:cc="http://web.resource.org/cc/"
   xmlns:rdf="http://www.w3.org/1999/02/22-rdf-syntax-ns#"
   xmlns:svg="http://www.w3.org/2000/svg"
   xmlns="http://www.w3.org/2000/svg"
   xmlns:xlink="http://www.w3.org/1999/xlink"
   xmlns:sodipodi="http://sodipodi.sourceforge.net/DTD/sodipodi-0.dtd"
   xmlns:inkscape="http://www.inkscape.org/namespaces/inkscape"
   width="22"
   height="22"
   id="svg8472"
   sodipodi:version="0.32"
   inkscape:version="0.45"
   sodipodi:docbase="/home/lapo/Icone/art-libre/22x22"
   sodipodi:docname="node-symmetric.svg"
   inkscape:output_extension="org.inkscape.output.svg.inkscape"
   version="1.0"
   sodipodi:modified="true">
  <defs
     id="defs8474">
    <linearGradient
       inkscape:collect="always"
       id="linearGradient9682">
      <stop
         style="stop-color:#ffffff;stop-opacity:1;"
         offset="0"
         id="stop9684" />
      <stop
         style="stop-color:#ffffff;stop-opacity:0;"
         offset="1"
         id="stop9686" />
    </linearGradient>
    <linearGradient
       inkscape:collect="always"
       xlink:href="#linearGradient9682"
       id="linearGradient10410"
       gradientUnits="userSpaceOnUse"
       x1="22.910416"
       y1="431.60751"
       x2="27.329832"
       y2="440.2254" />
    <linearGradient
       id="linearGradient8633">
      <stop
         id="stop8635"
         offset="0"
         style="stop-color:#d3d7cf;stop-opacity:1" />
      <stop
         id="stop8637"
         offset="1"
         style="stop-color:#eeeeec;stop-opacity:1" />
    </linearGradient>
    <linearGradient
       inkscape:collect="always"
       xlink:href="#linearGradient8633"
       id="linearGradient10408"
       gradientUnits="userSpaceOnUse"
       gradientTransform="translate(0,7)"
       x1="23.4375"
       y1="423.9375"
       x2="26.251186"
       y2="434.43832" />
    <linearGradient
       inkscape:collect="always"
       id="linearGradient7653">
      <stop
         style="stop-color:#babdb6;stop-opacity:1"
         offset="0"
         id="stop7655" />
      <stop
         style="stop-color:#eeeeec;stop-opacity:0"
         offset="1"
         id="stop7657" />
    </linearGradient>
    <linearGradient
       id="linearGradient7669"
       inkscape:collect="always">
      <stop
         id="stop7671"
         offset="0"
         style="stop-color:#555753;stop-opacity:1" />
      <stop
         id="stop7673"
         offset="1"
         style="stop-color:#555753;stop-opacity:0" />
    </linearGradient>
    <linearGradient
       inkscape:collect="always"
       id="linearGradient8039">
      <stop
         style="stop-color:#000000;stop-opacity:1;"
         offset="0"
         id="stop8041" />
      <stop
         style="stop-color:#000000;stop-opacity:0;"
         offset="1"
         id="stop8043" />
    </linearGradient>
    <linearGradient
       inkscape:collect="always"
       xlink:href="#linearGradient7653"
       id="linearGradient9812"
       gradientUnits="userSpaceOnUse"
       gradientTransform="matrix(0.9928974,0,0,0.8450708,-331.91497,-354.74311)"
       x1="336.38605"
       y1="426.56412"
       x2="336.38605"
       y2="424.16095" />
    <linearGradient
       inkscape:collect="always"
       xlink:href="#linearGradient7669"
       id="linearGradient9815"
       gradientUnits="userSpaceOnUse"
       gradientTransform="matrix(0.9939265,0,0,0.8450708,-332.2884,-354.74311)"
       x1="336.38605"
       y1="427.76694"
       x2="336.38605"
       y2="424.16095" />
    <radialGradient
       inkscape:collect="always"
       xlink:href="#linearGradient8039"
       id="radialGradient9819"
       gradientUnits="userSpaceOnUse"
       gradientTransform="matrix(1,0,0,0.4779412,0,229.52615)"
       cx="10.120466"
       cy="439.65573"
       fx="10.120466"
       fy="439.65573"
       r="3.0052037" />
  </defs>
  <sodipodi:namedview
     id="base"
     pagecolor="#ffffff"
     bordercolor="#666666"
     borderopacity="1.0"
     inkscape:pageopacity="0.0"
     inkscape:pageshadow="2"
     inkscape:zoom="1"
     inkscape:cx="10.193398"
     inkscape:cy="9.911998"
     inkscape:current-layer="layer1"
     showgrid="false"
     inkscape:grid-bbox="true"
     inkscape:document-units="px"
     borderlayer="false"
     inkscape:showpageshadow="false"
     showborder="false"
     inkscape:window-width="872"
     inkscape:window-height="763"
     inkscape:window-x="111"
     inkscape:window-y="220"
     width="22px"
     height="22px" />
  <metadata
     id="metadata8477">
    <rdf:RDF>
      <cc:Work
         rdf:about="">
        <dc:format>image/svg+xml</dc:format>
        <dc:type
           rdf:resource="http://purl.org/dc/dcmitype/StillImage" />
        <dc:title>Node Symmetric</dc:title>
        <dc:date>2006-05-01</dc:date>
        <dc:creator>
          <cc:Agent>
            <dc:title>Lapo Calamandrei</dc:title>
          </cc:Agent>
        </dc:creator>
        <cc:license
           rdf:resource="http://creativecommons.org/licenses/GPL/2.0/" />
        <dc:subject>
          <rdf:Bag>
            <rdf:li>node</rdf:li>
            <rdf:li>vertex</rdf:li>
            <rdf:li>smooth</rdf:li>
            <rdf:li>curve</rdf:li>
            <rdf:li>symmetric</rdf:li>
          </rdf:Bag>
        </dc:subject>
      </cc:Work>
      <cc:License
         rdf:about="http://creativecommons.org/licenses/GPL/2.0/">
        <cc:permits
           rdf:resource="http://web.resource.org/cc/Reproduction" />
        <cc:permits
           rdf:resource="http://web.resource.org/cc/Distribution" />
        <cc:requires
           rdf:resource="http://web.resource.org/cc/Notice" />
        <cc:permits
           rdf:resource="http://web.resource.org/cc/DerivativeWorks" />
        <cc:requires
           rdf:resource="http://web.resource.org/cc/ShareAlike" />
        <cc:requires
           rdf:resource="http://web.resource.org/cc/SourceCode" />
      </cc:License>
    </rdf:RDF>
  </metadata>
  <g
     id="layer1"
     inkscape:label="Layer 1"
     inkscape:groupmode="layer">
    <path
       transform="matrix(3.1374125,0,0,2.4368044,-21.252069,-1054.855)"
       d="M 13.12567 439.65573 A 3.0052037 1.4363106 0 1 1  7.1152625,439.65573 A 3.0052037 1.4363106 0 1 1  13.12567 439.65573 z"
       sodipodi:ry="1.4363106"
       sodipodi:rx="3.0052037"
       sodipodi:cy="439.65573"
       sodipodi:cx="10.120466"
       id="path7675"
       style="opacity:0.3;fill:url(#radialGradient9819);fill-opacity:1;stroke:none;stroke-width:1;stroke-linecap:round;stroke-linejoin:miter;stroke-miterlimit:4;stroke-dasharray:none;stroke-opacity:1"
       sodipodi:type="arc" />
    <path
       style="fill:none;fill-opacity:1;stroke:url(#linearGradient9815);stroke-width:2.99999976;stroke-linecap:square;stroke-linejoin:miter;stroke-miterlimit:4;stroke-dasharray:none;stroke-dashoffset:0;stroke-opacity:1"
       d="M 19.31308,3.40901 C 20.41571,9.4241 16.53318,14.50001 10.49198,14.50001 C 4.38227,14.50001 0.63716,9.49683 1.67088,3.40901"
       id="path7664"
       sodipodi:nodetypes="csc" />
    <path
       style="fill:none;fill-opacity:1;stroke:url(#linearGradient9812);stroke-width:0.99999994;stroke-linecap:square;stroke-linejoin:miter;stroke-miterlimit:4;stroke-dashoffset:0;stroke-opacity:1"
       d="M 19.32248,3.40901 C 20.38955,9.4866 16.54546,14.50001 10.51051,14.50001 C 4.40712,14.50001 0.56263,9.55933 1.69855,3.40901"
       id="path5657"
       sodipodi:nodetypes="csc" />
    <g
       id="g7630"
       style="stroke:#204a87"
       transform="translate(-333.99999,-419)">
      <path
         sodipodi:nodetypes="cc"
         id="path7621"
         d="M 338.5,433.5 L 350.5,433.5"
         style="fill:#729fcf;fill-rule:evenodd;stroke:#3465a4;stroke-width:3;stroke-linecap:butt;stroke-linejoin:miter;stroke-miterlimit:4;stroke-dasharray:none;stroke-opacity:1" />
      <path
         transform="matrix(0.9838007,0,0,0.9428091,6.673922,24.759433)"
         d="M 352.53691 433.53482 A 1.016466 1.0606601 0 1 1  350.50398,433.53482 A 1.016466 1.0606601 0 1 1  352.53691 433.53482 z"
         sodipodi:ry="1.0606601"
         sodipodi:rx="1.016466"
         sodipodi:cy="433.53482"
         sodipodi:cx="351.52045"
         id="path7623"
         style="fill:none;fill-opacity:1;stroke:#3465a4;stroke-width:3.1149838;stroke-linecap:square;stroke-linejoin:round;stroke-miterlimit:4;stroke-dasharray:none;stroke-dashoffset:0;stroke-opacity:1"
         sodipodi:type="arc" />
      <path
         transform="matrix(0.9838007,0,0,0.9428091,-9.326078,24.759433)"
         d="M 352.53691 433.53482 A 1.016466 1.0606601 0 1 1  350.50398,433.53482 A 1.016466 1.0606601 0 1 1  352.53691 433.53482 z"
         sodipodi:ry="1.0606601"
         sodipodi:rx="1.016466"
         sodipodi:cy="433.53482"
         sodipodi:cx="351.52045"
         id="path7625"
         style="fill:none;fill-opacity:1;stroke:#3465a4;stroke-width:3.1149838;stroke-linecap:square;stroke-linejoin:round;stroke-miterlimit:4;stroke-dasharray:none;stroke-dashoffset:0;stroke-opacity:1"
         sodipodi:type="arc" />
    </g>
    <g
       id="g7611"
       style="stroke:#b6cee7;stroke-opacity:1"
       transform="translate(-333.99999,-419)">
      <path
         sodipodi:nodetypes="cc"
         id="path6634"
         d="M 337.5,433.5 L 351.5,433.5"
         style="fill:#729fcf;fill-rule:evenodd;stroke:#c2d6eb;stroke-width:1px;stroke-linecap:butt;stroke-linejoin:miter;stroke-opacity:1" />
      <path
         transform="matrix(0.9838007,0,0,0.9428091,6.673922,24.759433)"
         d="M 352.53691 433.53482 A 1.016466 1.0606601 0 1 1  350.50398,433.53482 A 1.016466 1.0606601 0 1 1  352.53691 433.53482 z"
         sodipodi:ry="1.0606601"
         sodipodi:rx="1.016466"
         sodipodi:cy="433.53482"
         sodipodi:cx="351.52045"
         id="path6636"
         style="opacity:1;fill:none;fill-opacity:1;stroke:#c2d6eb;stroke-width:1.03832793;stroke-linecap:square;stroke-linejoin:round;stroke-miterlimit:4;stroke-dasharray:none;stroke-dashoffset:0;stroke-opacity:1"
         sodipodi:type="arc" />
      <path
         transform="matrix(0.9838007,0,0,0.9428091,-9.326078,24.759433)"
         d="M 352.53691 433.53482 A 1.016466 1.0606601 0 1 1  350.50398,433.53482 A 1.016466 1.0606601 0 1 1  352.53691 433.53482 z"
         sodipodi:ry="1.0606601"
         sodipodi:rx="1.016466"
         sodipodi:cy="433.53482"
         sodipodi:cx="351.52045"
         id="path6640"
         style="opacity:1;fill:none;fill-opacity:1;stroke:#c2d6eb;stroke-width:1.03832793;stroke-linecap:square;stroke-linejoin:round;stroke-miterlimit:4;stroke-dasharray:none;stroke-dashoffset:0;stroke-opacity:1"
         sodipodi:type="arc" />
    </g>
    <g
       id="g9838"
       transform="translate(-14,-419)">
      <rect
         style="fill:url(#linearGradient10408);fill-opacity:1;stroke:#888a85;stroke-width:1;stroke-linecap:round;stroke-linejoin:round;stroke-miterlimit:4;stroke-dasharray:none;stroke-dashoffset:0;stroke-opacity:1"
         id="rect9840"
         width="6"
         height="6"
         x="21.5"
         y="430.5"
         rx="0.64931798"
         ry="0.64931798" />
      <path
         id="path9842"
         d="M 22.500007,431.50001 L 26.499993,431.50001 L 26.499993,435.50013 L 22.500007,435.50013 L 22.500007,431.50001 z "
         style="opacity:1;fill:none;fill-opacity:1;stroke:url(#linearGradient10410);stroke-width:1.00000048;stroke-linecap:round;stroke-linejoin:miter;stroke-miterlimit:4;stroke-opacity:1" />
    </g>
  </g>
</svg>
